svgs/thin/person-pinball.svg

<svg xmlns="http://www.w3.org/2000/svg" viewBox="0 0 640 512"><!--! Font Awesome Pro 6.3.0 by @fontawesome - https://fontawesome.com License - https://fontawesome.com/license (Commercial License) Copyright 2023 Fonticons, Inc. --><path d="M616 0h-112C490.8 0 480 10.78 480 24v42.81c0 4.281 .6875 8.531 2.062 12.66l42.96 128.9l-301.3 46.33C223 237.7 209.2 223.1 192 223.1H145.1L96.81 151.5C87.01 136.8 70.57 127.1 52.84 127.1C23.71 127.1 0 151.7 0 180.8v123.2c0 19.33 11.44 36.49 29.24 44.05l82.71 46.63L112 479.1c0 17.64 14.36 32 32 32s32-14.36 32-32v-85.28c0-23.04-12.49-44.41-32.6-55.77L96 312.3V265.7l5.375 8.062C107.3 282.7 117.3 287.1 128 287.1l64 .002c5.953 0 11.22-2.076 16-4.92V504C208 508.4 211.6 512 216 512S224 508.4 224 504V400h400v104c0 4.406 3.594 8 8 8S640 508.4 640 504v-480C640 10.78 629.2 0 616 0zM192 271.1H128c-5.35 0-10.35-2.674-13.31-7.125L87.33 223.8C85.13 220.5 80 222.1 80 226.1v90.91c0 2.891 1.559 5.557 4.078 6.973l51.45 28.94C150.6 361.4 160 377.4 160 394.7v84.44c0 7.969-5.455 15.35-13.32 16.62C136.6 497.4 128 489.7 128 479.1v-85.28c0-5.781-3.125-11.12-8.188-13.97c0 0-83.44-47.04-83.58-47.12C24.4 328.9 16 317.5 16 303.1V182.2c0-17.37 11.43-33.32 28.36-37.2c15.39-3.529 30.74 2.828 39.14 15.44l53.06 79.59H191.2c7.969 0 15.35 5.455 16.62 13.32C209.4 263.3 201.7 271.1 192 271.1zM624 264V384H224V270.9l400-61.56V264zM624 193.1l-82.93 12.75l-43.82-131.5C496.4 71.94 496 69.38 496 66.81V24c0-4.406 3.594-8 8-8h112c4.406 0 8 3.594 8 8V193.1zM80 103.1c28.72 0 52-23.28 52-52c0-28.72-23.28-51.1-52-51.1S28 23.28 28 51.1C28 80.72 51.28 103.1 80 103.1zM80 16c19.84 0 36 16.16 36 35.1c0 19.84-16.16 36-36 36s-36-16.16-36-36C44 32.16 60.16 16 80 16zM56 399.1c-4.406 0-8 3.594-8 8v72c0 8.844-6.812 15.78-15.59 16C23.41 496.2 16 487.1 16 478.9v-102.9c0-4.406-3.594-8-8-8s-8 3.594-8 8v102.3c0 17.34 13.09 32.81 30.44 33.66C48.91 512.8 64 498.3 64 479.1v-72C64 403.6 60.41 399.1 56 399.1zM304 320C312.8 320 320 312.8 320 304C320 295.2 312.8 288 304 288S288 295.2 288 304C288 312.8 295.2 320 304 320z"/></svg>

<svg xmlns="http://www.w3.org/2000/svg" viewBox="0 0 640 512"><!-- Font Awesome Pro 6.0.0-alpha2 by @fontawesome - https://fontawesome.com License - https://fontawesome.com/license (Commercial License) --><path d="M616 0H504C490.781 0 480 10.781 480 24V66.812C480 71.094 480.688 75.344 482.062 79.469L525.02 208.371L223.738 254.705C223.02 237.689 209.188 223.996 192 223.996H145.125L96.812 151.529C87.008 136.799 70.568 127.998 52.844 127.998C23.705 127.998 0 151.703 0 180.842V303.996C0 323.322 11.438 340.486 29.244 348.049C33.074 350.215 48.373 358.84 111.955 394.682L112 479.994C112 497.639 126.355 511.994 144 511.994S176 497.639 176 479.994V394.713C176 371.676 163.51 350.307 143.404 338.941L96 312.285V265.684L101.375 273.746C107.35 282.676 117.297 287.996 128 287.996H192C197.953 287.996 203.221 285.922 208 283.078V376V400V504C208 508.406 211.594 512 216 512S224 508.406 224 504V400H624V504C624 508.406 627.594 512 632 512S640 508.406 640 504V400V376V264V190.688V24C640 10.781 629.219 0 616 0ZM192 271.996H128C122.65 271.996 117.654 269.322 114.688 264.871L87.328 223.832C85.133 220.539 80 222.094 80 226.051V316.965C80 319.855 81.559 322.521 84.078 323.938L135.531 352.871C150.625 361.4 160 377.432 160 394.713V479.16C160 487.129 154.545 494.506 146.678 495.777C136.648 497.398 128 489.715 128 479.994V394.713C128 388.932 124.875 383.588 119.812 380.744C119.812 380.744 36.373 333.709 36.232 333.623C24.404 328.926 16 317.508 16 303.996V182.168C16 164.801 27.432 148.846 44.361 144.965C59.752 141.436 75.105 147.793 83.5 160.404L136.562 239.996H191.166C199.135 239.996 206.512 245.451 207.783 253.318C209.404 263.35 201.721 271.996 192 271.996ZM624 264V376V384H224V376V270.875L624 209.313V264ZM624 193.148L541.072 205.902L497.25 74.406C496.406 71.938 496 69.375 496 66.812V24C496 19.594 499.594 16 504 16H616C620.406 16 624 19.594 624 24V193.148ZM80 103.998C108.719 103.998 132 80.717 132 51.998C132 23.281 108.719 0 80 0S28 23.281 28 51.998C28 80.717 51.281 103.998 80 103.998ZM80 16C99.844 16 116 32.156 116 51.998C116 71.842 99.844 87.998 80 87.998S44 71.842 44 51.998C44 32.156 60.156 16 80 16ZM56 399.994C51.594 399.994 48 403.588 48 407.994V479.994C48 488.838 41.188 495.775 32.406 495.994C23.406 496.213 16 487.963 16 478.932V375.994C16 371.588 12.406 367.994 8 367.994S0 371.588 0 375.994V478.307C0 495.65 13.094 511.119 30.438 511.963C48.906 512.838 64 498.275 64 479.994V407.994C64 403.588 60.406 399.994 56 399.994ZM304 320C312.836 320 320 312.836 320 304C320 295.162 312.836 288 304 288S288 295.162 288 304C288 312.836 295.164 320 304 320Z"/></svg>
